X:1
T:Mr. Baillie of Mellerston’s Strathspey
T:Mr. Baillie of Mellerston’s Strathspey
T:Nathaniel Gow
C:Nathaniel Gow
L:1/8
M:4/4
K:D
V:1 treble 
V:1
 e | B<EB>d D>EFd | B<EB>F TE>FGA | B>dF>d D>EFd | B<EB>F{F} E2 E :| g/a/ | b(ee>)f Td>efa | %7
 b(ee>)g e>ge^c | d<fB>d D>Efd | B<ETB>F{F} E2 Eg/a/ | b(ee).f Td>e f/e/f/a/ | b(ee>).f e>ge^c | %12
 d<fB>d D>EFd | Ee (B/A/)G/F/{F} E2 E || %14

